X:1
T:Title
%%score { 1 | 2 }
L:1/8
M:6/8
K:C
V:1 treble nm="Grand Piano"
V:2 bass 
V:1
 z3 z2[Q:1/4=90] [EG] | [EG]>[CE][EG] [Ec][Fd][Ge] | [Ec]3 [EG]2 [EG] | A>AA [Ac][GB][FA] | %4
[M:5/8] [EG]-[EG]- [EG]3 |[M:1/8] [Ec] |[M:3/4] B>B Bc Bc | d3 e2 c | %8
 [GB]>[^FA] [GB][Fd] [Fc][FA] |[M:5/8] [DG]-[DG]- [DG]3 |[M:1/8] [FG] |[M:3/4] [Ec]>[Ec] [Ec]d cA | %12
 [EG]3 [CE]2 [EG] | c>c c[^Fe] [Fd][Fd] |[M:5/8] [Gd]-[Gd]- [Gd]3 |[M:1/8] [FG] | %16
[M:3/4] [Ec]>[Ec] [Ec][Ge] [Gd][Gc] |[M:7/8] d3 c3 A |[M:3/4] G>c cB AB | %19
[M:5/8] [Ec]-[Ec]- [Ec]3 |] %20
V:2
 z3 z2 [C,G,] | [C,G,]>[C,G,][C,G,] [C,G,][C,G,][C,G,] | [C,G,]3 [C,C]2 [C,C] | %3
 [F,CF]>[F,CF][F,CF] [F,C][F,C][F,C] |[M:5/8] [C,C]-[C,C]- [C,C]3 |[M:1/8] [C,G,] | %6
[M:3/4][K:treble] [G,D]>[G,F] [G,F][G,E] [G,D][G,E] | [G,B,G]3 [CG]2 [A,EA] | %8
 [D,D]>[D,D] [D,D][D,A,] [D,A,][D,C] |[M:5/8] [G,B,]-[G,B,]- [G,B,]3 |[M:1/8] [G,B,] | %11
[M:3/4] [C,C]>[C,G,] [C,G,][F,A,F] [F,A,F][F,CF] | [C,C]3 [C,G,]2 [C,C] | %13
 [A,E]>[A,E] [A,E][D,A,] [D,A,][D,C] |[M:5/8] [G,B,]-[G,B,]- [G,B,]3 |[M:1/8] [G,B,] | %16
[M:3/4] [C,C]>[C,G,] [C,G,][C,C] [D,B,][E,_B,] |[M:7/8][K:treble] [F,A,F]3 [F,A,F]3 [F,CF] | %18
[M:3/4] [G,CE]>[G,E] [G,E][G,D] [G,C^F][G,D=F] |[M:5/8][K:bass] [C,C]-[C,C]- [C,C]3 |] %20

